X: 1
M: C
L: 1/8
K: D
(f/e/) | d A A> F A2 z(f/e/) |
d B B> A B2 (B>d) | A B d d
e f Ha> b | {b}a f {f}e d B3 :||:
(f/g/) | a>b a f a3 d' |
b> c' b a b3 Hy d' | a f e d
d e f> b | {g}a f {f}e d B3 |:
K:

